X: 150
T: Dancing the Baby
O: Trad.
S: From Liz Donaldson
S: Arr. T. Traub 6-26-03
B: orig. O'Neill's 1001 #990
R: reel
M: 4/4
K: D
L: 1/8
A2 |\
"D"FA A2 "A7"GA A2 | "D"FA A2 "A7"GF E2 | "D"FA A2 "A7"GA A2 | "A"D2 DE "D"FE D2 |\
"D"FA A2 "A7"GA A2 | "D"FA A2 "A7"GF E2 | "D"D2 DF "A"E2 EF | "D"D2 D2 D2 |]
A2 |\
"D"dF F2 AF F2 | "D"dF F2 "A7"GF E2 | "D"dF F2 AF F2 | "A"D2 DE "D"FE D2 |\
"D"dF F2 AF F2 | "D"dF F2 "A7"GF E2 | "G"D2 DF "A"E2 EF | "D"D2 D2 D2 |]
|: g2 |\
"D"fa a2 "A" ga a2 | "D"fa a2 "A"gf e2 | "D"fa a2 "G"gbag | "D"fe d2 "A"cB A2 |\
"D"fa a2 "A"ga a2 | "D"fa a2 "A"gf e2 | "Bm"d2 df "A"e2 ef | "D"d2 d2 d2 :|

%%sep 1 1 500

